assets/icons/linux-mint.svg

<?xml version="1.0"?>
<!DOCTYPE svg PUBLIC "-//W3C//DTD SVG 1.1//EN" "http://www.w3.org/Graphics/SVG/1.1/DTD/svg11.dtd">
<!-- Uploaded to: SVG Repo, www.svgrepo.com, Transformed by: SVG Repo Mixer Tools -->
<svg xmlns="http://www.w3.org/2000/svg" width="512px" height="512px" viewBox="-3.2 -3.2 38.40 38.40" fill="none">
    <g id="SVGRepo_bgCarrier" stroke-width="0">
        <rect x="-3.2" y="-3.2" width="38.40" height="38.40" rx="5.76" fill="#ffffff" strokewidth="0"/>
    </g>
    <g id="SVGRepo_tracerCarrier" stroke-linecap="round" stroke-linejoin="round"/>
    <g id="SVGRepo_iconCarrier">
        <path opacity="0.26" d="M5.3055 19.4875L5.30091 13.9287V12.264H2V3L15.9198 3.06783L20.2742 3.07743C25.4853 3.07743 29.9988 7.15209 29.9988 12.5335V28.9435H15.0302C9.82371 28.9435 5.3055 24.864 5.3055 19.4874V19.4875Z" fill="#000000"/>
        <path d="M27.9993 24.6522V12.7214C27.9993 8.73553 24.6174 5.50441 20.4447 5.50441H16.1136V5.4948L4.40039 5.44189V9.79497H6.19844C7.45357 9.79497 7.67527 10.6905 7.67527 11.93L7.68456 19.6259C7.68456 23.6118 11.0665 26.8428 15.2346 26.8428H25.5257C26.8449 26.8428 27.9995 25.9793 27.9995 24.652L27.9993 24.6522Z" fill="url(#paint0_linear_87_7474)"/>
        <path opacity="0.175" d="M26.9781 25.6597C24.3463 23.7852 22.4824 21.632 20.9123 18.7815C17.8172 12.872 18.5409 9.93842 10.8765 9.24671C8.66466 9.24671 7.19243 8.74072 4.86426 8.74072V9.57871C4.86426 9.57871 5.78428 10.0614 6.59297 10.0614C7.79889 10.0614 8.00811 10.926 8.00811 12.1169L8.01577 19.493C8.01577 23.3228 11.2701 26.4266 15.2748 26.4266H25.1575C25.883 26.4266 26.5346 26.1311 26.9781 25.6597Z" fill="url(#paint1_linear_87_7474)"/>
        <path d="M17.8188 9.97637C16.8797 9.97637 16.0453 10.3368 15.3748 11.0367C14.7047 11.7365 14.3529 12.6098 14.3529 13.5956V18.5783H16.5394V13.5955C16.5394 13.2177 16.6586 12.9223 16.9197 12.6497C17.1815 12.3764 17.4589 12.2526 17.8188 12.2526C18.1864 12.2526 18.4595 12.3758 18.722 12.6497C18.9829 12.9222 19.1023 13.2177 19.1023 13.5955V18.5782H21.2888V13.5955C21.2888 13.2177 21.408 12.9223 21.669 12.6497C21.9315 12.3757 22.2046 12.2526 22.5722 12.2526C22.9323 12.2526 23.2095 12.3764 23.4713 12.6497C23.7323 12.9222 23.8516 13.2177 23.8516 13.5955L23.8635 19.4174C23.8635 20.6594 22.7192 21.7061 21.2492 21.7061L14.1984 21.6775C13.064 21.6775 12.095 20.5361 12.095 19.0695V8.10596H10.0273V19.4912C10.0273 20.6992 10.455 21.7586 11.2869 22.6152C11.9981 23.3406 12.8532 23.7699 13.8141 23.8761V23.9171H21.6651C22.8714 23.9171 23.9313 23.4534 24.7865 22.5537H24.7904C25.5176 21.7815 25.9427 20.8561 26.046 19.8147L26.0381 13.5956C26.0381 12.6098 25.6863 11.7365 25.0162 11.0367C24.3457 10.3368 23.5113 9.97637 22.5722 9.97637C21.6503 9.97637 20.8437 10.3307 20.1916 10.9794C19.5413 10.3317 18.7402 9.97637 17.8188 9.97637Z" fill="#000000" fill-opacity="0.08"/>
        <path d="M17.6443 10.0359C16.7051 10.0359 15.8706 10.3963 15.2001 11.0963C14.53 11.796 14.1782 12.6694 14.1782 13.6551V18.6378H16.3647V13.6551C16.3647 13.2774 16.4839 12.982 16.745 12.7094C17.0068 12.4361 17.2842 12.3123 17.6443 12.3123C18.0117 12.3123 18.285 12.4355 18.5473 12.7094C18.8084 12.9819 18.9276 13.2774 18.9276 13.6551V18.6378H21.1142V13.6551C21.1142 13.2774 21.2334 12.982 21.4945 12.7094C21.7569 12.4354 22.03 12.3123 22.3976 12.3123C22.7577 12.3123 23.0349 12.4361 23.2968 12.7094C23.5579 12.9819 23.6771 13.2774 23.6771 13.6551L23.689 19.4771C23.689 20.7191 22.5446 21.7658 21.0746 21.7658L14.0236 21.7371C12.8892 21.7371 11.9203 20.5958 11.9203 19.1292V8.16553H9.85254V19.5508C9.85254 20.7588 10.2802 21.8181 11.1122 22.6747C11.8233 23.4002 12.6786 23.8704 13.6394 23.9767H21.4905C22.6969 23.9767 23.7569 23.513 24.612 22.6133H24.6159C25.3432 21.841 25.7682 20.9157 25.8716 19.8742L25.8637 13.6551C25.8637 12.6694 25.5119 11.7959 24.8417 11.0963C24.1712 10.3963 23.3367 10.0359 22.3976 10.0359C21.4759 10.0359 20.6692 10.3902 20.017 11.039C19.3666 10.3912 18.5656 10.0359 17.6443 10.0359Z" fill="white"/>
        <path d="M15.1667 28.4949C10.1963 28.4949 5.8832 24.6004 5.8832 19.4679L5.87883 13.2358V11.6466H2.72754V3.72852L20.1725 3.80233C25.1472 3.80233 29.4558 7.69216 29.4558 12.8293V28.4949H15.1667ZM27.4313 24.2926V12.8293C27.4313 8.99962 24.1819 5.89522 20.1726 5.89522L4.75691 5.83508V9.55399H6.01762C6.87355 9.55399 7.9035 10.3853 7.9035 11.6053L7.91246 19.4633C7.91246 23.2931 11.1619 26.3975 15.1666 26.3975H25.0544C26.322 26.3975 27.4313 25.5677 27.4313 24.2926Z" fill="white"/>
        <defs>
            <linearGradient id="paint0_linear_87_7474" x1="6.65269" y1="8.17265" x2="19.3466" y2="21.6399" gradientUnits="userSpaceOnUse">
                <stop stop-color="#C7F994"/>
                <stop offset="1" stop-color="#87CF3E"/>
            </linearGradient>
            <linearGradient id="paint1_linear_87_7474" x1="9.24523" y1="24.6117" x2="17.1539" y2="12.614" gradientUnits="userSpaceOnUse">
                <stop stop-color="#3D3D3D"/>
                <stop offset="1" stop-opacity="0.114"/>
            </linearGradient>
        </defs>
    </g>
</svg>

<svg xmlns="http://www.w3.org/2000/svg" width="512" height="512" fill="none" viewBox="-3.2 -3.2 38.4 38.4"><rect width="38.4" height="38.4" x="-3.2" y="-3.2" fill="#fff" stroke-width="0" rx="5.76"/><path fill="#000" d="m5.306 19.488-.005-5.56v-1.664H2V3l13.92.068 4.354.01c5.211 0 9.725 4.074 9.725 9.456v16.41H15.03c-5.206 0-9.724-4.08-9.724-9.457" opacity=".26"/><path fill="url(#a)" d="M28 24.652v-11.93c0-3.986-3.383-7.218-7.555-7.218h-4.331v-.01L4.4 5.443v4.353h1.798c1.256 0 1.477.896 1.477 2.135l.01 7.696c0 3.986 3.382 7.217 7.55 7.217h10.29c1.32 0 2.475-.864 2.475-2.191"/><path fill="url(#b)" d="M26.978 25.66c-2.632-1.875-4.496-4.028-6.066-6.878-3.095-5.91-2.371-8.844-10.035-9.535-2.212 0-3.685-.506-6.013-.506v.838s.92.482 1.729.482c1.206 0 1.415.865 1.415 2.056l.008 7.376c0 3.83 3.254 6.934 7.259 6.934h9.882c.726 0 1.378-.296 1.821-.767" opacity=".175"/><path fill="#000" fill-opacity=".08" d="M17.819 9.976c-.94 0-1.774.36-2.444 1.06a3.6 3.6 0 0 0-1.022 2.56v4.982h2.186v-4.982c0-.378.12-.674.38-.946.262-.274.54-.397.9-.397.367 0 .64.123.903.397.26.272.38.568.38.945v4.983h2.187v-4.982c0-.378.119-.674.38-.946.262-.274.536-.397.903-.397.36 0 .637.123.9.397.26.272.38.568.38.945l.011 5.822c0 1.242-1.144 2.29-2.614 2.29l-7.05-.03c-1.135 0-2.104-1.14-2.104-2.607V8.106h-2.068v11.385c0 1.208.428 2.268 1.26 3.124.711.726 1.566 1.155 2.527 1.261v.041h7.851c1.206 0 2.266-.464 3.122-1.363h.003a4.58 4.58 0 0 0 1.256-2.74l-.008-6.218c0-.986-.352-1.86-1.022-2.56s-1.505-1.06-2.444-1.06c-.922 0-1.728.355-2.38 1.003-.65-.647-1.452-1.003-2.373-1.003"/><path fill="#fff" d="M17.644 10.036c-.939 0-1.773.36-2.444 1.06a3.6 3.6 0 0 0-1.022 2.56v4.982h2.187v-4.983c0-.378.119-.673.38-.946.262-.273.54-.397.9-.397.367 0 .64.123.902.397.261.273.38.568.38.946v4.983h2.187v-4.983c0-.378.12-.673.38-.946.263-.274.536-.397.904-.397.36 0 .637.124.899.397.26.273.38.568.38.946l.012 5.822c0 1.242-1.144 2.289-2.614 2.289l-7.051-.029c-1.135 0-2.104-1.141-2.104-2.608V8.166H9.853V19.55c0 1.208.427 2.267 1.26 3.124.71.725 1.566 1.195 2.526 1.302h7.852c1.206 0 2.266-.464 3.121-1.364h.004a4.58 4.58 0 0 0 1.256-2.739l-.008-6.219a3.6 3.6 0 0 0-1.022-2.559c-.67-.7-1.505-1.06-2.444-1.06-.922 0-1.729.354-2.381 1.003-.65-.648-1.451-1.003-2.373-1.003"/><path fill="#fff" d="M15.167 28.495c-4.97 0-9.284-3.895-9.284-9.027l-.004-6.232v-1.59H2.728V3.73l17.444.073c4.975 0 9.284 3.89 9.284 9.027v15.666zm12.264-4.202V12.829c0-3.83-3.25-6.934-7.258-6.934l-15.416-.06v3.719h1.26c.857 0 1.886.831 1.886 2.051l.01 7.858c0 3.83 3.249 6.935 7.254 6.935h9.887c1.268 0 2.377-.83 2.377-2.105"/><defs><linearGradient id="a" x1="6.653" x2="19.347" y1="8.173" y2="21.64" gradientUnits="userSpaceOnUse"><stop stop-color="#c7f994"/><stop offset="1" stop-color="#87cf3e"/></linearGradient><linearGradient id="b" x1="9.245" x2="17.154" y1="24.612" y2="12.614" gradientUnits="userSpaceOnUse"><stop stop-color="#3d3d3d"/><stop offset="1" stop-opacity=".114"/></linearGradient></defs></svg>
